X:1
T:Los Padres, 87.87.87 D
T:Los Padres, 87.87.87 D
T:Ira David Sankey, 1902
T:Public Domain Courtesy of the Cyber Hymnal™
C:Ira David Sankey, 1902
Z:Public Domain
Z:Courtesy of the Cyber Hymnal™
%%score 1 ( 2 3 )
L:1/8
Q:1/4=84
M:4/4
K:Ab
V:1 treble 
V:2 bass 
V:3 bass 
V:1
 [CE][CE] | [CA]>[CA] [CA][CA] [EA][EG][EA][EB] | [Ec][Ec] [Ec]>[DB] [CA]2 [EA][EB] | %3
 [Ec]>[Ec] [Ec][Ec] [Ed][Ec][EB][EB] | [EB][EB] [=DB]>[Dc] [EB]2 [Ec][_DB] | %5
 [CA]>[DA] [EA][EG] [FB][FA][EG][DF] | [CE][CE] [EA]>[EB] [Ec]2 [Ec]>[Ec] | %7
 [Dd]>[Dd] [Ec][EB] [Ee][Ec][CA][Fd] | [Ec]>[EB] [EA][DG] !fermata![CA]2 [Ec][Ed] | %9
 [Ae]>[Ae] [Ae][Ae] [Ae][Ec][Ed][Ee] | [Ee][Ed] [Ed]>[Ec] [Ed]2 [EB][Ec] | %11
 [Ed]>[Ed] [Ec][EB] [Ec]!fermata![Ae][EA][Fd] | [Ec]>[EB] [EA][DG] !fermata![CA]2 |] %13
V:2
 [A,,A,][A,,A,] | [A,,E,]>[A,,E,] [A,,E,][A,,E,] [C,A,][D,B,][C,A,][E,G,] | %2
 A,A, [E,A,]>[E,G,] [A,,A,]2 [C,A,][E,G,] | A,>A, A,A, [G,B,]A,[C,A,][C,A,] | %4
 [E,G,][E,G,] [B,,F,]>[B,,A,] [E,G,]2 [E,G,][E,G,] | %5
 [A,,A,]>[B,,A,] [C,A,][C,A,] [D,A,][D,A,][D,A,][D,A,] | %6
 [A,,A,][A,,A,] [C,A,]>[E,G,] A,2 A,>[_G,A,] | %7
 [F,A,]>[F,A,] [E,A,][D,G,] [C,A,][A,,A,][F,A,][D,A,] | %8
 [E,A,]>[E,D] [E,C][E,B,] !fermata![A,,A,]2 A,[A,B,] | %9
 [A,C]>[A,C] [E,B,][E,B,] [A,C]A,[A,B,][A,C] | [E,C][E,B,] [E,B,]>[E,A,] [E,B,]2 [E,G,][E,A,] | %11
 [E,B,]>[E,B,] [E,A,]A, A,!fermata![A,C][C,A,][D,A,] | %12
 [E,A,]>[E,D] [E,C][E,B,] !fermata![A,,A,]2 |] %13
V:3
 x2 | x8 | A,A, x6 | A,>A, A,A, A, x3 | x8 | x8 | x4 A,2 A,3/2 x/ | x8 | x6 A, x | x5 A, x2 | x8 | %11
 x3 A, A, x3 | x6 |] %13

